X:1
T:Timebunt gentes - Lutz
T:#
%%score [ ( 1 2 ) ( 3 4 ) ] { ( 5 6 ) | 7 }
L:1/8
Q:1/4=120
M:2/2
K:G
V:1 treble nm="Soprano Alto" snm="S A"
V:2 treble 
V:3 bass nm="Tenor Bass" snm="T B"
V:4 bass 
V:5 treble nm="Organ"
V:6 treble 
V:7 bass 
V:1
"^allegro""^Mass Propers for Pentecost XVIII""^Timebunt gentes""^W. Meyer Lutz\n(1829-1903)" z8 | %1
w: |
 z8 | z8 | z4 z2 E2 | E4 (G3 A) | A6 [Gc]2 | [GB]2 G2 A4 | G4 z4 |[M:2/2] z8 | z8 | z8 | z8 | z8 | %13
w: ||Ti-|me- bunt *|gen- tes|no- men tu-|um.||||||
 z8 | z8 | z8 |[M:2/2] z8 | z8 | z8 | z8 | z8 | z8 | z8 | z8 |[M:2/2] z8 | z8 | z8 | z8 | %28
w: |||||||||||||||
!ff! [Fd]4 [Fd]2 [Fd]2 | ([Bd]3 E) E4 | [Ge]4 [Ge]2 [Ge]2 | [Ge]4 [GA]4 | [Ff]3 [Ff] [Ff]4 | %33
w: San- cti- fi-|ca\- * vit|Moy- ses al-|ta- re|Do- mi- no,|
 [Bf]3 [Bf] [Be]4 | [Ad]3 [Ad] [Ad]2 [Ad]2 | [Gd]8 | [G^c]8 | [Ge]8 | [Fd]4 z2 D2 | D6 D2 | %40
w: of- fe- rens|su- per il- lud|ho-|lo-|cau-|sta, et|im- mo-|
 B,4 z4 | [B,G]6 [B,G]2 | [B,D]8 | [EA]8 | A8 | [B,G]4 z4 | z8 | z8 |"^Soprano" B6 B2 | G4 z4 | %50
w: lans|vi- cti-|mas,|vi-||mas,|||Do- mi-|no|
 z8 | d8 | B4 z4 | z8 | G2 G2 B2 d2 | e8- | e2 d2 ^c2 B2 | B6 B2 | A8 | B8- | B2 A2 G2 F2 | E6 D2 | %62
w: |De-|o,||in con- spe- ctu|fi\-|* li- o- rum|Is- ra-|el,|fi\-|* li- o- rum|Is- ra-|
 D4 z4 |!>(! [_B,_E]6!>)! [B,E]2 | [=B,D]2 [B,D]2 z4 |!>(! [_B,=E]6!>)! [B,E]2 | [=B,D]4 [B,D]4 | %67
w: el.|In con-|spe- ctu|fi- li-|o- rum|
 [B,G]8- | [B,G]4 [B,G]4 |!>(! [B,G]8-!>)! | [B,G]4 z4 | z8 | z8 | z8 | z4 z2 D2 | B4 G4 | E6 F2 | %77
w: Is\-|* ra-|el.|||||Ti-|me- bunt|gen- tes|
 G2 A2 B2 c2 | B3 B A2 D2 | B4 G4 | E6 F2 | G2 A2 B>B c2 | (B2 A2) G4 | z8 | z8 | z8 | z8 | z8 | %88
w: no- men tu- um,|Do- mi- ne: et|o- mnes|re- ges|ter- rae glo- ri- am|tu\- * am.||||||
 z8 | [Bd]2 [Bd]2 [A^c]2 [GB]2 | !>![GB]3 [FA] [FA]2 [FA]2 | [EA]6 [EA]2 | ([Ac]4 [GB]2) [FA]2 | %93
w: |A- do- ra- te|Do- mi- num in|au- la|san\- * cta|
!>(! [EG]8!>)! | [^DF]2 z2 z4 |!f! B4 G4 | E6 F2 | G2 A2 B2 c2 | B3 B A2 D2 | B4 G4 | E6 F2 | %101
w: e-|jus:|A- do-|ra- te,|a- do- ra- te|Do- mi- num in|au- la|san- cta,|
 G2 A2 B2 c2 | (B2 A2) G4 |!ff! [=FA]6 [FA]2 | [Ec]6 [Ec]2 | [=Fd]6 [Fd]2 | [Ae]6 [Af]2 | %107
w: au- la san- cta|e\- * jus,|a- do-|ra- te|Do- mi-|num in|
 [Gg]4 [GB]4 | [Gc]4 [Ge]4 | [GA]8- | [FA]8 | G4 z4 | [Gc]8 | [GB]4 z4 |[Q:1/4=90] !fermata![ce]8 | %115
w: au- la|san- cta|e\-||jus.|A-|men,|A-|
[Q:1/4=120] [Bg]4 z4 | z8 | z8 | z8 | z8[Q:1/4=90] | z8 |] %121
w: men.||||||
V:2
 x8 | x8 | x8 | x8 | x8 | x8 | x2 G4 F2 | x8 |[M:2/2] x8 | x8 | x8 | x8 | x8 | x8 | x8 | x8 | %16
w: ||||||||||||||||
[M:2/2] x8 | x8 | x8 | x8 | x8 | x8 | x8 | x8 |[M:2/2] x8 | x8 | x8 | x8 | x8 | x8 | x8 | x8 | x8 | %33
w: |||||||||||||||||
 x8 | x8 | x8 | x8 | x8 | x8 | x8 | x8 | x8 | x8 | x8 | (D6 C2) | x8 | x8 | x8 | x8 | x8 | x8 | %51
w: |||||||||||cti\- *|||||||
 x8 | x8 | x8 | x8 | x8 | x8 | x8 | x8 | x8 | x8 | x8 | x8 | x8 | x8 | x8 | x8 | x8 | x8 | x8 | %70
w: |||||||||||||||||||
 x8 | x8 | x8 | x8 | x8 | x8 | x8 | x8 | x8 | x8 | x8 | x8 | x8 | x8 | x8 | x8 | x8 | x8 | x8 | %89
w: |||||||||||||||||||
 x8 | x8 | x8 | x8 | x8 | x8 | x8 | x8 | x8 | x8 | x8 | x8 | x8 | x8 | x8 | x8 | x8 | x8 | x8 | %108
w: |||||||||||||||||||
 x8 | x8 | x8 | x8 | x8 | x8 | x8 | x8 | x8 | x8 | x8 | x8 | x8 |] %121
w: |||||||||||||
V:3
 x8 | x8 | x8 | x8 | x8 | x4 x2 (G,A,) | x8 | x8 |[M:2/2] B,4 G,4 | E,6 F,2 | G,2 A,2 B,2 C2 | %11
w: |||||tes *|||me- bunt|gen- tes|no- men tu- um,|
 B,3 B, A,2 D,2 | !>!B,4 !>!G,4 | E,6 F,2 | G,2 A,2 B,>B, C2 | (B,2 A,2) G,4 | A,3 A, F,4 | %17
w: Do- mi- ne: et|o- mnes|re- ges|ter- rae glo- ri- am|tu\- * am.|Tol- li- te|
 B,3 B, F,4 | G,4 F,2 E,2 | (E,3 ^E,) F,3 A, | [E,C]3 [E,C] [E,C]4 | [A,C]2 [CE]2 [B,D]2 [A,C]2 | %22
w: ho- sti- as,|et in- tro-|i\- * te in|a- tri- a|e- jus: a- do-|
 [G,B,]2 A,2 [E,G,]2 [E,A,]2 | [^D,B,]4 E,4 | (E,4 C2) A,2 | G,4 F,4 | A,8 | G,6 z2 | %28
w: ra- te Do- mi-|num in|au\- * la|san- cta|e-|jus.|
!ff! [B,,B,]4 [B,,B,]2 [B,,A,]2 | [E,G,]4 [E,G,]4 | [E,B,]4 [E,B,]2 [D,B,]2 | [^C,A,]4 [C,A,]4 | %32
w: San- cti- fi-|ca- vit|Moy- ses al-|ta- re|
 x8 | x8 | x8 | E8- | E6 D2 | x8 | x8 | x8 | x8 | x8 | x8 | x8 | (G,4 F,4) | x8 | x8 | x8 | x8 | %49
w: |||ho\-|* lo-||||||||cti\- *|||||
 x8 | x8 | B,8 | G,4"^Bass" x4 | x8 | x8 | x8 | z8 | z8 | z8 | z8 | z8 | z8 | z8 | %63
w: ||De-|o,|||||||||||
!>(! [^C,G,]6!>)! [C,G,]2 | [D,G,]2 [D,G,]2 z4 |!>(! [^C,G,]6!>)! [C,G,]2 | [D,G,]4 [D,G,]4 | %67
w: In con-|spe- ctu|fi- li-|o- rum|
 [G,,D,]8- | [G,,D,]4 [G,,D,]4 |!>(! [G,,D,]8-!>)! | [G,,D,]4 z4 | z8 | z8 | z8 | z8 | z4 z2 B,2 | %76
w: Is\-|* ra-|el.||||||Ti-|
 E4 C4 | B,2 C2 D2 E2 | D2 [DG]2 [DF]2 D2 | ^D4 E4 | C4 A,4 | B,2 C2 D>D E2 | (D2 [D,C]2) [G,B,]4 | %83
w: me- bunt|no- men tu- um,|Do- mi- ne: et|o- mnes|re- ges|ter- rae glo- ri- am|tu\- * am.|
 A,3 A, F,4 | B,3 B, F,4 | G,4 F,2 E,2 | (E,2 ^E,2) F,2 A,2 | x8 | x8 | x8 | x8 | x8 | %92
w: Tol- li- te|ho- sti- as|et in- tro-|i\- * te in||||||
 (A,4 B,2) C2 |!>(! x8!>)! | [B,,B,]2 z2 z4 |!f! B,4 G,4 | E,6 F,2 | G,2 A,2 B,2 C2 | %98
w: san\- * cta||jus:|A- do-|ra- te,|a- do- ra- te|
 B,3 B, A,2 D,2 | B,4 G,4 | E,6 F,2 | G,2 A,2 B,2 C2 | (B,2 A,2) G,4 |!ff! [=G,=C]6 [G,C]2 | %104
w: Do- mi- num in|au- la|san- cta,|au- la san- cta|e\- * jus,|a- do-|
 [C,C]6 [C,G,]2 | [_B,,_B,]6 [B,,B,]2 | [A,,C]6 [D,C]2 | [G,=B,]4 [=F,D]4 | [E,C]4 [C,C]4 | %109
w: ra- te|Do- mi-|num in|au- la|san- cta|
 [D,C]8- | [D,C]8 | [G,B,]4 z4 | [C,E]8 | [G,D]4 z4 | !fermata![CE]8 | [G,D]4 z4 | z8 | z8 | z8 | %119
w: e\-||jus.|A-|men,|A-|men.||||
 z8 | z8 |] %121
w: ||
V:4
 z8 | z8 | z8 | z4 z2 E,2 | E,4 (G,3 A,) | A,6 E,2 | [D,B,]2 [E,E]2 ([C,E]2 [D,C]2) | %7
w: |||Ti-|me- bunt *|gen- *|no- men tu\- *|
 [G,B,]4 z2!mf! B,2 |[M:2/2] x8 | x8 | x8 | x8 | x8 | x8 | x8 | x8 | x8 | x8 | x8 | x8 | x8 | x8 | %22
w: um, ti-|||||||||||||||
 x8 | x8 | x8 | x8 | x8 | x8 | x8 | x8 | x8 | x8 | [D,D]3 [D,D] [D,D]4 | %33
w: ||||||||||Do- mi- no,|
 [G,B,]3 [G,B,] ([G,E]2 [E,G]2) | [A,F]3 [A,F] [A,=F]2 [A,F]2 | A,8 | A,8 | A,8 | [D,D]4 z2 D,2 | %39
w: of- fe- rens *|su- per il- lud|ho-|lo-|cau-|sta, et|
 [G,B,]6 [G,B,]2 | [G,B,]4 z4 | [G,,D,]6 [G,,D,]2 | [G,,G,]8 | [C,G,]8 | D,8 | [G,,G,]4 z4 | %46
w: im- mo-|lans|vi- cti-|mas,|vi-||mas,|
 z4 B,,2 E,2 | ^C,6 C,2 | D,3 G, G,4 | z4 B,,2 E,2 | ^C,8 | D,4 z4 | z4 B,,2 E,2 | %53
w: fe- cit|sa- cri-|fi- ci- um|ve- sper-|ti-|num|in o-|
 ^C,2 C,2 C,2 C,2 | D,4 B,4 | z8 | x8 | x8 | x8 | x8 | x8 | x8 | x8 | x8 | x8 | x8 | x8 | x8 | x8 | %69
w: do- rem sua- vi-|ta- tis.|||||||||||||||
 x8 | x8 | x8 | x8 | x8 | x8 | x8 | x8 | x8 | x8 | x8 | x8 | x8 | x8 | x8 | x8 | x8 | x8 | %87
w: ||||||||||||||||||
 A,3 F, F,4 | B,4 F,2 z2 | z8 | z4 z2 D2 | =C6 C2 | z4 E,2 A,,2 | [B,,B,]8 | x8 | x8 | x8 | x8 | %98
w: a- tri- a|e- jus,||in|au- la|san- cta|e-|||||
 x8 | x8 | x8 | x8 | x8 | x8 | x8 | x8 | x8 | x8 | x8 | x8 | x8 | x8 | x8 | x8 | x8 | x8 | x8 | %117
w: |||||||||||||||||||
 x8 | x8 | x8 | x8 |] %121
w: ||||
V:5
!f! g4 b3 g | e2 d2 B2 G2 | E4 G3 A | A4 z2!f! E2 | E4 [CEG]3 [CEA] | [CEA]6 [CGc]2 | %6
 [DGB]2 [B,EG]2 [CA]4 | [B,DG]4 z4 |[M:2/2][K:bass] B,4 G,4 | E,6 F,2 | G,2!<(! A,2 B,2!<)! C2 | %11
!>(! (B,4!>)! A,4) | B,4 G,4 | E,6 F,2 | G,2 A,2 B,2 C2 | (B,2 A,2 G,4) |[K:treble] A4 F4 | B4 F4 | %18
 (G4 F2 E2) | (E3 ^E) F4 | =c4 c4 | c2 e2 d2 c2 | B2 A2 G2 A2 | B4 E4 | E3 E c2 A2 | G4 F4 | %26
 [CDA]8 | [B,DG]6 z2 |!ff! [FBd]8 | [EBd]8 | [GBe]8 | [GAe]4 [GA]4 | [Af]8 | f4 B2 e2 | %34
 [FAd]4 [=FAd]4 | [EGd]8 | [EG^c]8 | [GAe]8 | [FAd]2 z2!p! D2 D2 | [B,D]8- | B,4 z4 | [B,G]8 | %42
 [B,D]8 | [EGA]8 | [GA]4- [FA]4 | [G,B,DG]2 [G,B,D]2 [G,B,D]2 [G,B,D]2 | %46
 [G,B,D]2 [G,B,D]2 [G,B,D]2 [G,B,D]2 | z2 [G,_B,_E]2 [G,B,E]2 [G,B,E]2 | %48
 [G,=B,D]2 [G,B,D]2 [G,B,D]2 [G,B,D]2 | [G,B,D]2 [G,B,D]2 [G,B,D]2 [G,B,D]2 | %50
 z2 [G,_B,E]2 [G,B,E]2 [G,B,E]2 | z2 [G,=B,D]2 [G,B,D]2 [G,B,D]2 | %52
 [G,B,D]2 [G,B,D]2 [G,B,D]2 [G,B,D]2 | z2 [G,_B,E]2 [G,B,E]2 [G,B,E]2 | %54
 z2 [G,=B,D]2 [G,B,D]2 [G,B,D]2 | z2!p! [G,A,E]2 [G,A,E]2 [G,A,E]2 | %56
 z2 [G,A,E]2 [G,A,E]2 [G,A,E]2 | z2 [G,A,E]2 [G,A,E]2 [G,A,E]2 | z2 [G,A,E]2 [G,A,E]2 [G,A,E]2 | %59
 z2 [^F,=CD]2 [F,CD]2 [F,CD]2 | z2 [^F,=CD]2 [F,CD]2 [F,CD]2 | z2 [G,B,E]2 [G,B,D]2 [G,B,D]2 | %62
 z2 [G,B,D]2 [G,B,D]2 [G,B,D]2 | z2 [G,_B,_E]2 [G,B,E]2 [G,B,E]2 | z2 [G,=B,D]2 [G,B,D]2 [G,B,D]2 | %65
 z2!>(! [G,_B,=E]2 [G,B,E]2 [G,B,E]2!>)! | z2 [G,=B,D]2 [G,B,D]2 [G,B,D]2 | [DGB]8 | [GBd]8 | %69
!>(! [Bdg]8-!>)! | [Bdg]4 z4 | z2!ff! B2 ^A2 B2 | ^A2 B2 A2 B2 | !>!c4 !>!A4 | !>!E4 !>!F4 | %75
 [GB]4- G4 | E6 F2 | [B,G]2 [CA]2 [DB]2 [Cc]2 | [GB]4 [FA]4 | [FB]4 [EG]4 | E6 F2 | %81
 [B,G]2 [CA]2 [DB]2 [Cc]2 | [DB]2 [CA]2 [B,G]4 | [FA]4 [DF]2 [DF]2 | [DB]4 [DF]2 [DF]2 | %85
 [EG]4 F2 E2 | [DE]2 [^C^E]2 [DF]4 | [FA]4 [DF]2 [DF]2 | [DB]4 [DF]2 [DF]2 | [Bd]4 [A^c]2 [GB]2 | %90
 [GB]3 [FA] [FA]2 [FA]2 | [EA]8 | [Ac]4 [GB]2 [FA]2 | [EG]8 | [^DF]2!f! B2 B2 B2 | B4 G4 | E6 F2 | %97
 G2 A2 B2 c2 | B4 A4 | B4 G4 | E6 F2 | G2 A2 B2 c2 | B2 A2 G4 | [C=FA]6 [CFA]2 | [EGc]8 | %105
 [=F_Bd]8 | [Ace]6 [Acf]2 | [GBg]4 [DGB]4 | [CGc]4 [Gce]4 | [CGA]8- | [CFA]8 | [B,G]3 F G2 G2 | %112
 [EGc]8 | [DGB]3 F G2 G2 | !fermata![EGe]8 | [Gg]4 b3 g | e2 d2 B2 G2 | E4 G3 A | A6 [Fcf]2 | %119
 [GBg]2 [Aea]2 !fermata![Acf]4 | [GBg]4 z4 |] %121
V:6
 x8 | x8 | x8 | x8 | x8 | x8 | x4 [EG]2 [DF]2 | x8 |[M:2/2][K:bass] x8 | x8 | x8 | x8 | x8 | x8 | %14
 x8 | x8 |[K:treble] x8 | x8 | x8 | x8 | x8 | x8 | x8 | x8 | x8 | z2 [A,C]2 z2 [A,C]2 | x8 | x8 | %28
 x8 | x8 | x8 | x8 | x8 | [GB]8 | x8 | x8 | x8 | x8 | x8 | x8 | x8 | x8 |[I:staff +1] D,4 D,4 | %43
[I:staff -1] x8 | D6 C2 | x8 | x8 | x8 | x8 | x8 | x8 | x8 | x8 | x8 | x8 | x8 | x8 | x8 | x8 | %59
 x8 | x8 | x8 | x8 | x8 | x8 | x8 | x8 | x8 | x8 | x8 | x8 | x8 | x8 | x8 | x8 | x8 | x8 | x8 | %78
 x8 | B,8 | C8 | x8 | x8 | x8 | x8 | x4 D4- | x8 | x8 | x8 | x8 | x8 | x8 | x8 | x8 | x8 | x8 | %96
 x8 | x8 | x8 | x8 | x8 | x8 | x8 | x8 | x8 | x8 | x8 | x8 | x8 | x8 | x8 | x8 | x8 | x8 | x8 | %115
 x8 | x8 | x8 | x8 | x8 | x8 |] %121
V:7
 G,4 B,3 G, | E,2 D,2 B,,2 G,,2 | E,,4 G,,3 A,, | A,,4 z2 E,2 | E,4 C,3 A,, | A,,6 E,2 | %6
 D,2 E,2 C,2 D,2 | G,4 z4 |[M:2/2] G,,2 A,,2 B,,2 G,,2 | C,2 B,,2 C,2 D,2 | E,2 F,2 G,2 A,2 | %11
 G,2 D,2 F,2 D,2 | ^D,2 F,2 E,2 B,,2 | C,2 B,,2 C,2 A,,2 | E,2 F,2 G,2 A,2 | (D,2 F,2 G,4) | %16
 [D,F,A,]8- | [B,,D,F,B,]8 | [E,G,B,]8 | ([A,^C]4 [D,A,D]4) | ([E,G,]8 | [F,A,]8) | %22
 [G,B,]2 z2 ([C,E,]4 | [B,,^D,F,B,]4) [E,^G,B,]4 | [A,C]4 [C,E,A,]4 | z2 _E,2 z2 D,2 | %26
 z2 D,2 E,2 F,2 | G,2 D,2 G,,2 z2 | B,^CDC B,A,G,F, | E,F,G,A, B,A,G,F, | G,A,B,A, G,F,E,D, | %31
 ^C,D,E,D, C,A,,C,A, | DEFE DCB,A, | G,A,B,A, G,F,G,E, | A,^G,A,B, A,2 A,,2 | A,^G,A,B, A,2 A,,2 | %36
 A,,B,,^C,D, E,F,G,^G, | A,^G,A,B, A,=G,F,E, | D,2 z2 D,2 D,2 | [G,,G,]8- | [G,,D,G,]4 D,4- | %41
 [G,,D,]8 | G,,8 | C,8 | D,8 | G,,2 z2 z4 | z2 G,,2 B,,2 E,2 | ^C,8 | D,4 z4 | z2 G,,2 B,,2 E,2 | %50
 ^C,8 | D,4 z4 | z2 G,,2 B,,2 E,2 | ^C,8 | D,4 z4 | ^C,8 | A,,8 | ^C,8 | A,,8 | A,,8 | D,,8 | %61
 G,,8 | G,,2 G,,2 B,,2 E,2 | ^C,8 | D,2 G,,2 B,,2 E,2 | ^C,8 | D,2 G,,2 B,,2 E,2 | D,6 G,2 | %68
 B,2 D2 G,2 B,2 | D,2 G,2 B,,2 D,2 | G,,4 z4 | z2 B,2 ^A,2 B,2 | ^A,2 B,2 A,2 B,2 | !>!C4 !>!A,4 | %74
 !>!E,4 !>!F,4 | G,,F,,G,,A,, B,,A,,G,,B,, | C,D,E,D, C,B,,C,A,, | G,,G,F,D, =F,G,,E,C, | %78
 D,G,B,D D,F,A,D | ^D,E,F,D, E,F,G,E, | C,D,E,C, A,,B,,C,A,, | G,,G,F,D, =F,D,E,C, | %82
 D,E,F,D, G,2 G,,2 | D,E,F,D, A,F,D,F, | B,,^C,D,B,, B,F,D,F, | E,B,,E,G, B,F,G,^G, | %86
 A,^G,A,A,, D,B,A,F, | D,E,F,D, B,F,D,F, | B,,^C,D,B,, B,F,D,B,, | G,,A,,B,,^C, D,E,F,G, | %90
 D,E,F,G, A,B,^CD | =CB,CB, A,2 A,,2 | A,E,C,A,, E,2 A,,2 | B,,E,G,B, CB,^A,B, | B,,2 B,2 B,2 B,2 | %95
 G,,2 A,,2 B,,2 G,,2 | C,2 B,,2 C,2 D,2 | E,2 F,2 G,2 A,2 | G,2 D,2 F,2 D,2 | ^D,2 F,2 E,2 B,,2 | %100
 C,2 B,,2 C,2 A,,2 | E,2 F,2 G,2 A,2 | D,2 F,2 G,4 | =F,6 F,2 | C,8 | _B,,8 | A,,6 D,2 | G,4 =F,4 | %108
 E,4 C,4 | D,8- | D,8 | [G,,G,]3 F, G,2 G,2 | [C,G,]8 | [G,,G,]3 F, G,2 G,2 | !fermata![C,C]8 | %115
 G,4 B,3 G, | E,2 D,2 B,,2 G,,2 | E,,4 G,,3 A,, | A,,6 D,2 | E,2 C,2 !fermata!D,4 | G,,4 z4 |] %121

